svg/ricky/sitting/emotion/shocked.svg

<?xml version="1.0" encoding="UTF-8"?>
<svg width="500px" height="600px" viewBox="0 0 500 600" version="1.1" xmlns="http://www.w3.org/2000/svg" xmlns:xlink="http://www.w3.org/1999/xlink">
    <title>shocked</title>
    <defs>
        <polygon id="path-1" points="0.000531546459 0.454 182.161962 0.454 182.161962 198.107401 0.000531546459 198.107401"></polygon>
    </defs>
    <g id="shocked" stroke="none" stroke-width="1" fill="none" fill-rule="evenodd">
        <g transform="translate(169.000000, 58.000000)">
            <g id="face" transform="translate(0.000000, 0.546000)">
                <mask id="mask-2" fill="white">
                    <use xlink:href="#path-1"></use>
                </mask>
                <g id="Clip-4"></g>
                <path d="M172.4951,104.5349 C172.2271,106.0479 171.9271,107.5579 171.6161,109.0679 C171.5471,109.3019 171.4961,109.5399 171.4661,109.7829 C170.8131,112.8959 170.1031,116.0029 169.4091,119.0969 C169.0261,120.8039 168.5471,123.0969 166.9181,124.0889 C165.9891,124.6539 163.3321,124.4499 163.5591,122.8539 C163.6081,122.5109 163.4941,122.2269 163.3071,122.0129 C163.4401,113.2759 162.1381,104.6229 160.4871,95.9929 C161.0541,95.9069 161.5741,95.5839 161.9291,95.0489 C161.9981,94.9429 162.0691,94.8389 162.1421,94.7359 C162.1531,94.7209 162.1871,94.6759 162.2181,94.6339 C162.2661,94.5759 162.3251,94.5049 162.3411,94.4859 C162.4061,94.4099 162.4731,94.3349 162.5401,94.2599 C162.8651,93.9039 163.2241,93.5969 163.5811,93.2759 C163.5861,93.2709 163.5851,93.2709 163.5901,93.2669 C163.5921,93.2659 163.5921,93.2659 163.5941,93.2639 C163.6761,93.2059 163.7571,93.1459 163.8401,93.0899 C164.0271,92.9609 164.2181,92.8389 164.4121,92.7219 C164.6071,92.6049 164.8061,92.4949 165.0081,92.3909 C165.1201,92.3349 165.2331,92.2789 165.3481,92.2249 C165.3931,92.2039 165.4391,92.1819 165.4851,92.1629 C165.6201,92.1019 165.5771,92.1199 165.3551,92.2149 C165.4451,92.1019 165.8661,92.0199 165.9931,91.9769 C166.2081,91.9049 166.4261,91.8399 166.6451,91.7819 C166.8651,91.7229 167.0861,91.6729 167.3081,91.6299 C167.4071,91.6099 167.5071,91.5939 167.6061,91.5759 C167.6041,91.5749 167.5991,91.5759 167.5981,91.5739 C167.5981,91.5749 167.6051,91.5749 167.6071,91.5759 C167.6321,91.5719 167.6561,91.5669 167.6801,91.5629 C167.9671,91.5139 167.7131,91.5819 167.6241,91.5799 C167.6891,91.5879 167.8741,91.5699 168.0451,91.5509 C168.6461,91.7489 169.2181,92.0359 169.7081,92.4339 C173.2711,95.3349 173.2231,100.4239 172.4951,104.5349 M161.2831,124.2969 C161.2001,125.8999 161.0471,127.5069 160.8581,129.1099 C160.6391,129.7179 160.5671,130.3769 160.6211,131.0249 C160.3781,132.6879 160.0411,134.3349 159.6641,135.9719 C158.3251,140.1539 156.4071,144.1129 153.9711,147.7609 C153.9631,147.7519 153.9551,147.7429 153.9471,147.7339 C151.0921,150.9959 147.7301,153.8309 144.2551,156.4329 C137.7361,161.3179 130.9761,165.9069 124.2101,170.4389 C120.2021,173.1239 116.1631,175.7629 112.0981,178.3589 C111.8861,178.4949 111.7571,178.6709 111.6901,178.8589 C110.3651,179.6869 108.9971,180.4379 107.5411,181.0269 C102.1041,183.2239 96.3291,182.2229 90.9911,180.2489 C85.9751,178.3929 81.1671,175.8689 76.4031,173.4479 C67.8811,169.1179 59.4001,164.2839 52.4831,157.5979 C45.3171,150.6689 40.7261,141.9399 39.1761,132.0819 C37.5681,121.8619 38.9211,111.3819 40.3221,101.2219 C40.9901,96.3799 41.6931,91.5179 42.2201,86.6419 C47.0191,89.1969 52.1331,89.7649 55.9271,83.8619 C57.7011,81.1019 58.8521,78.0019 59.5441,74.7689 C62.2881,76.5689 65.3011,77.5269 68.6181,76.6229 C71.8371,75.7459 74.3921,73.2299 75.8501,70.3059 C77.1101,67.7789 76.8531,64.4989 78.1591,62.1129 C81.2191,63.8319 84.6021,64.9109 88.0681,65.0389 C96.0071,65.3319 100.3841,59.3059 102.8571,52.5159 C106.7651,54.5589 111.7011,54.5839 115.5461,52.3169 C115.7961,52.9449 116.0841,53.5579 116.4071,54.1559 C117.8981,58.6389 121.8501,62.1959 126.4201,63.5419 C129.4101,64.4219 132.5621,64.2709 135.4061,62.9849 C135.4711,62.9559 135.5381,62.9189 135.6031,62.8879 C135.5601,68.8059 136.8221,74.5629 141.2261,79.1479 C145.1591,83.2439 150.8271,84.8759 156.0271,83.8139 C156.0431,83.8949 156.0581,83.9769 156.0741,84.0579 C156.0781,84.1839 156.0861,84.3089 156.0901,84.4349 C156.1191,85.3179 156.3291,86.1559 156.6541,86.9399 C157.0131,88.7059 157.3731,90.4719 157.7281,92.2349 C159.8501,102.7669 161.8401,113.5059 161.2831,124.2969 M102.5171,191.1329 C100.9611,193.6609 98.6391,196.3529 95.3951,196.0899 C92.2731,195.8359 90.5791,192.7119 89.3451,190.1259 C89.4201,189.9919 89.4731,189.8389 89.4731,189.6469 L89.4731,181.8069 C92.8151,183.1189 96.2751,184.1039 99.8711,184.2859 C100.7211,184.3289 101.5471,184.2939 102.3631,184.2239 L102.3631,190.6399 C102.3631,190.8209 102.4281,190.9839 102.5171,191.1329 M36.5171,123.3419 C36.4691,123.3649 36.4211,123.3899 36.3851,123.4309 C36.2991,123.5239 36.2271,123.6529 36.2381,123.7839 C36.2411,123.8219 36.2371,123.8589 36.2351,123.8969 C36.2271,123.9329 36.2181,123.9689 36.2061,124.0039 C36.1911,124.0339 36.1741,124.0619 36.1561,124.0899 C36.1181,124.1289 36.0801,124.1679 36.0421,124.2059 C35.9611,124.2879 35.9151,124.4009 35.9041,124.5159 C35.9001,124.5159 35.8961,124.5149 35.8921,124.5139 C35.6331,124.3789 35.3141,124.3529 34.9811,124.5319 C33.1081,125.5439 31.2871,123.8279 30.1461,122.4669 C28.8021,120.8639 27.8761,118.8899 26.9271,117.0419 C24.9471,113.1829 23.2241,108.8799 23.8311,104.4589 C24.3061,100.9989 26.3021,97.2649 29.9331,96.3759 C32.8951,95.6509 36.6421,96.8909 37.5941,100.0199 C37.7201,100.4329 38.0251,100.6349 38.3561,100.6899 C37.2921,108.2229 36.3861,115.7639 36.5171,123.3419 M99.1861,3.8299 C97.7151,3.2469 96.1901,2.8029 94.6211,2.5069 C96.2191,2.6429 97.7661,3.1049 99.1861,3.8299 M182.0231,100.6849 C181.8711,99.5389 181.5491,98.4689 181.2441,97.3579 C180.8501,95.9199 181.1411,94.7439 181.4611,93.3279 C182.5081,88.6999 181.0171,83.7939 177.5941,80.5159 C180.6801,73.2679 178.8771,64.3449 173.0261,58.9869 C173.0781,57.6219 172.6671,56.4169 172.0161,55.3119 C171.5911,54.2519 170.9021,53.4059 170.0421,52.7819 C169.7541,52.4779 169.4601,52.1789 169.1621,51.8859 C169.0101,51.7369 168.8491,51.5889 168.6851,51.4379 C168.3391,48.5569 167.9761,45.6199 167.3031,42.8389 C167.2681,42.4049 167.2271,41.9719 167.1681,41.5389 C166.7271,38.2789 165.6731,34.4019 163.2761,31.9979 C161.6411,30.3569 158.9931,29.6469 156.9821,30.7429 C155.9231,28.1849 154.4301,25.7579 152.5491,23.7109 C151.5731,22.1759 150.3161,20.8309 148.6761,19.8189 C146.3271,18.3689 143.5991,18.2229 141.1571,18.9829 C140.6731,15.4699 138.3491,12.2779 134.8981,11.0209 C130.9131,9.5689 126.2501,11.2869 123.8151,14.6509 C121.5561,11.7759 118.9891,8.9399 115.4391,7.7799 C112.6981,6.8859 109.4351,7.1519 107.1321,8.9059 C107.0301,8.8079 106.9291,8.7039 106.8261,8.6099 C106.7511,8.5409 106.6691,8.4829 106.5931,8.4159 C104.1261,3.8709 99.3781,0.6849 94.1231,0.4659 C88.4871,0.2289 83.2191,3.5289 80.5491,8.3739 C76.7901,4.8589 70.7391,4.1579 66.2101,6.6229 C65.6171,6.9459 65.0611,7.3319 64.5381,7.7589 C63.9551,8.2339 63.4361,8.9799 62.7661,9.3249 C61.8281,9.8079 60.9351,9.0259 60.0931,8.6419 C59.3071,8.2849 58.4891,8.0099 57.6391,7.8499 C54.4171,7.2469 51.0171,8.0099 48.4661,10.0969 C46.2921,11.8749 44.9261,14.4959 44.5581,17.2559 C43.7051,18.3189 42.9841,19.4629 42.3831,20.6739 C38.1811,16.4309 30.0711,16.9059 26.9331,22.3049 C26.0241,23.8679 25.5991,25.6609 24.6981,27.2269 C24.3011,27.9179 23.8041,28.5729 23.0811,28.9489 C21.8831,29.5729 20.4461,29.3319 19.1511,29.2949 C15.1791,29.1789 12.1471,31.5749 10.8751,35.2979 C9.6241,38.9619 10.6841,42.6849 12.3681,46.0489 C12.6921,46.8599 13.0791,47.6459 13.5361,48.3999 C7.8171,50.4889 5.3271,58.4129 8.2561,63.6109 C8.2981,64.0829 8.3631,64.5519 8.4531,65.0149 C3.5581,66.7519 -0.1909,71.5249 0.0081,76.8859 C0.2091,82.3099 4.3151,86.9599 9.4431,88.2889 C4.5531,94.0439 6.4621,102.9229 10.1151,108.9789 C11.3131,110.9659 12.8261,112.6549 14.3191,114.4179 C16.1261,116.5509 17.0301,118.7769 17.7301,121.4559 C18.8921,125.9019 20.9641,129.7799 24.5661,132.7319 C28.3931,135.8689 33.2371,137.6469 38.2051,137.4259 C38.2451,137.4239 38.2721,137.4049 38.3101,137.3999 C39.9731,143.6499 42.8181,149.5049 47.0261,154.6379 C53.2311,162.2059 61.5791,167.7299 70.0891,172.3859 C74.4811,174.7879 78.9771,177.0039 83.4941,179.1609 C84.8321,179.7999 86.1911,180.4299 87.5681,181.0219 C87.5091,181.1459 87.4731,181.2899 87.4731,181.4579 L87.4731,189.2769 C87.2051,189.5649 87.0761,189.9859 87.2861,190.4329 C88.9081,193.8799 91.1411,197.7909 95.3951,198.0899 C99.5701,198.3829 102.6101,194.9449 104.5251,191.6759 C104.7901,191.2229 104.6531,190.7959 104.3631,190.5139 L104.3631,183.9459 C107.8281,183.2749 111.0151,181.6999 114.0421,179.6859 C113.9931,179.6509 113.9541,179.6029 113.9061,179.5649 C120.9491,175.0529 127.9131,170.4159 134.7811,165.6389 C141.0661,161.2679 147.6051,156.9679 153.0981,151.5959 C153.4861,151.2159 153.8411,150.8029 154.2151,150.4089 C154.4561,150.3649 154.6881,150.2359 154.8641,149.9889 C155.0941,149.6669 155.3121,149.3369 155.5341,149.0089 C155.5581,148.9809 155.5841,148.9569 155.6081,148.9299 C155.6031,148.9269 155.5981,148.9249 155.5931,148.9219 C157.8511,145.5669 159.6801,141.9399 161.0431,138.1349 C161.0971,138.1569 161.1541,138.1679 161.2061,138.1909 C161.3601,137.5979 161.4911,137.0009 161.6261,136.4039 C161.6791,136.2379 161.7381,136.0739 161.7891,135.9079 C161.8251,135.7889 161.8231,135.6829 161.8201,135.5779 C161.8271,135.5469 161.8361,135.5149 161.8421,135.4839 C161.9401,135.5259 162.0371,135.5679 162.1581,135.5799 C166.3061,135.9779 170.1371,134.0479 173.0911,131.2559 C176.1861,128.3299 179.1071,124.1069 179.6781,119.8079 C179.8121,118.7979 179.7931,117.7699 179.5531,116.7749 C179.2711,115.6029 178.3351,114.5099 178.6461,113.2689 C178.9011,112.2509 179.7281,111.3509 180.2251,110.4409 C180.7871,109.4089 181.2351,108.3019 181.5571,107.1719 C182.1531,105.0729 182.3091,102.8469 182.0231,100.6849" id="Fill-3" fill="#231F20" mask="url(#mask-2)"></path>
            </g>
            <path d="M109.7207,164.0057 C109.6907,164.3757 109.7257,164.8957 109.4197,165.1477 C109.1297,165.3847 108.6057,165.3467 108.2527,165.3727 C107.1977,165.4517 106.1427,165.5267 105.0877,165.6037 C103.2047,165.7407 101.3207,165.8777 99.4377,166.0147 L96.1037,166.0147 C95.5557,162.9977 95.1887,159.8627 95.9727,156.8707 C96.7017,154.0937 98.7177,151.4747 101.5477,150.6147 C104.4877,149.7237 107.1497,151.3887 108.5707,153.9377 C110.2677,156.9827 109.9937,160.6577 109.7207,164.0057 M110.5727,154.3737 C109.3207,151.2907 106.5477,148.6037 103.0257,148.7297 C99.6607,148.8487 96.6547,151.3007 95.2127,154.2437 C93.1637,158.4277 93.9167,163.3087 94.7697,167.6947 C94.9427,168.5827 96.1347,168.3757 96.3267,167.6427 L98.0207,167.6427 C98.1297,167.6937 98.2537,167.7287 98.4077,167.7167 C98.7507,167.6927 99.0947,167.6667 99.4377,167.6427 L100.8437,167.6427 C100.9897,167.6427 101.1267,167.5857 101.2517,167.5097 C102.6477,167.4087 104.0437,167.3067 105.4397,167.2047 C106.5707,167.1227 107.7087,167.0727 108.8357,166.9557 C109.5857,166.8787 110.3167,166.6977 110.7977,166.0737 C111.3177,165.3977 111.3107,164.4907 111.3737,163.6777 C111.4597,162.5777 111.5347,161.4777 111.5427,160.3747 C111.5557,158.3477 111.3417,156.2667 110.5727,154.3737" id="mouth" fill="#231F20"></path>
            <g id="eyes" transform="translate(61.164241, 83.828107)" fill="#231F20">
                <path d="M30.168759,29.771393 C29.439759,34.419393 27.434759,39.429393 23.925759,42.681393 C19.742759,46.557393 13.887759,45.225393 10.372759,41.155393 C7.15175903,37.426393 5.78875903,32.153393 5.78072269,27.312393 C5.77175903,22.039393 7.43475903,16.779393 10.548759,12.516393 C10.896759,12.526393 11.236759,12.564393 11.564759,12.631393 C11.589759,12.586393 11.617759,12.545393 11.636759,12.493393 C12.889759,9.02439299 17.967759,8.62239299 20.984759,9.43239299 C23.867759,10.207393 26.038759,12.104393 27.411759,14.605393 C27.193759,14.880393 27.127759,15.259393 27.385759,15.650393 C27.944759,16.498393 28.402759,17.390393 28.803759,18.304393 C28.925759,18.795393 29.035759,19.292393 29.134759,19.790393 C29.207759,19.764393 29.280759,19.739393 29.353759,19.713393 C30.455759,22.914393 30.700759,26.382393 30.168759,29.771393 M30.672759,17.533393 C29.930759,14.706393 28.628759,11.961393 26.368759,10.048393 C24.072759,8.10339299 21.075759,7.02339299 18.063759,7.06739299 C15.346759,7.10639299 12.372759,8.06839299 10.681759,10.213393 C10.347759,10.020393 9.93175903,10.030393 9.61275903,10.436393 C2.81875903,19.079393 1.35675903,32.703393 8.29975903,41.755393 C11.657759,46.134393 17.687759,48.688393 22.870759,45.896393 C27.594759,43.351393 30.368759,37.585393 31.626759,32.596393 C32.883759,27.609393 32.722759,22.230393 30.672759,17.533393" id="Fill-10"></path>
                <path d="M53.824459,19.713693 C53.897459,19.738693 53.970459,19.764693 54.043459,19.789693 C54.142459,19.291693 54.252459,18.795693 54.374459,18.304693 C54.775459,17.390693 55.233459,16.497693 55.792459,15.650693 C56.050459,15.259693 55.985459,14.880693 55.766459,14.605693 C57.140459,12.104693 59.310459,10.206693 62.193459,9.43269299 C65.210459,8.62169299 70.288459,9.02469299 71.541459,12.492693 C71.560459,12.545693 71.588459,12.586693 71.613459,12.631693 C71.942459,12.564693 72.281459,12.526693 72.629459,12.516693 C75.743459,16.778693 77.407459,22.038693 77.3975038,27.312693 C77.389459,32.152693 76.026459,37.426693 72.805459,41.154693 C69.290459,45.225693 63.435459,46.557693 59.252459,42.681693 C55.743459,39.429693 53.739459,34.419693 53.009459,29.771693 C52.477459,26.382693 52.722459,22.913693 53.824459,19.713693 M51.552459,32.596693 C52.809459,37.585693 55.584459,43.351693 60.307459,45.896693 C65.491459,48.688693 71.520459,46.134693 74.878459,41.755693 C81.821459,32.702693 80.359459,19.078693 73.565459,10.436693 C73.246459,10.029693 72.830459,10.020693 72.496459,10.213693 C70.805459,8.06769299 67.831459,7.10669299 65.114459,7.06769299 C62.102459,7.02369299 59.105459,8.10369299 56.809459,10.048693 C54.549459,11.961693 53.247459,14.705693 52.505459,17.532693 C50.456459,22.230693 50.294459,27.609693 51.552459,32.596693" id="Fill-12"></path>
                <path d="M13.740059,0.899292994 C8.48605903,2.21929299 3.70105903,5.19129299 0.206059027,9.33229299 C-0.472940973,10.137293 0.686059027,11.308293 1.37105903,10.497293 C4.69705903,6.55529299 9.17505903,3.74529299 14.177059,2.48729299 C15.205059,2.22929299 14.770059,0.640292994 13.740059,0.899292994" id="Fill-14"></path>
                <path d="M76.790259,4.56429299 C72.718259,1.05629299 67.256259,0.352292994 62.086259,0.00229299429 C61.028259,-0.0697070057 61.032259,1.57729299 62.086259,1.64829299 C66.774259,1.96629299 71.921259,2.53729299 75.625259,5.72829299 C76.425259,6.41729299 77.595259,5.25629299 76.790259,4.56429299" id="Fill-16"></path>
                <path d="M24.234659,21.408093 C23.350659,19.742093 21.747659,18.209093 19.826659,17.912093 C19.339659,17.837093 18.835659,17.869093 18.354659,17.990093 C18.214659,17.958093 18.062659,17.951093 17.894659,17.989093 C11.394659,19.444093 10.045659,28.941093 14.954659,32.887093 C16.325659,33.988093 18.094659,34.553093 19.832659,34.070093 C21.555659,33.592093 22.963659,32.237093 23.880659,30.742093 C25.576659,27.977093 25.761659,24.284093 24.234659,21.408093" id="Fill-18"></path>
                <path d="M70.907959,21.408093 C70.023959,19.742093 68.420959,18.209093 66.499959,17.912093 C66.012959,17.837093 65.508959,17.869093 65.027959,17.990093 C64.887959,17.958093 64.735959,17.951093 64.567959,17.989093 C58.067959,19.444093 56.717959,28.941093 61.627959,32.887093 C62.998959,33.988093 64.767959,34.553093 66.505959,34.070093 C68.228959,33.592093 69.635959,32.237093 70.553959,30.742093 C72.249959,27.977093 72.434959,24.284093 70.907959,21.408093" id="Fill-20"></path>
            </g>
            <path d="M109.9223,134.1102 C109.8373,133.5772 109.1713,133.2802 108.6923,133.4122 C108.1233,133.5682 107.9083,134.1072 107.9933,134.6422 C108.3923,137.1482 106.3583,139.8442 103.8583,140.2002 C101.2333,140.5742 98.5353,138.3232 98.3513,135.7012 C98.2623,134.4232 96.2613,134.4142 96.3513,135.7012 C96.5583,138.6612 98.7463,141.2382 101.6103,142.0072 C104.5013,142.7842 107.4283,141.3602 108.9743,138.8752 C109.8673,137.4382 110.1873,135.7732 109.9223,134.1102" id="nose" fill="#231F20"></path>
        </g>
    </g>
</svg>

<svg width="500" height="600" xmlns="http://www.w3.org/2000/svg" xmlns:xlink="http://www.w3.org/1999/xlink"><defs><path id="a" d="M0 .454h182.162v197.653H.001z"/></defs><g fill="none" fill-rule="evenodd"><g transform="translate(169 58.546)"><mask id="b" fill="#fff"><use xlink:href="#a"/></mask><path d="M172.495 104.535a166.116 166.116 0 01-.879 4.533c-.069.234-.12.472-.15.715-.653 3.113-1.363 6.22-2.057 9.314-.383 1.707-.862 4-2.49 4.992-.93.565-3.587.36-3.36-1.235a1.024 1.024 0 00-.252-.841c.133-8.737-1.169-17.39-2.82-26.02a2.104 2.104 0 001.442-.944c.07-.106.14-.21.213-.313l.076-.102.123-.148c.065-.076.132-.151.2-.226.324-.356.683-.663 1.04-.984l.01-.01.003-.002c.082-.058.163-.118.246-.174a11.113 11.113 0 011.168-.7c.112-.055.225-.111.34-.165.045-.021.091-.043.137-.062.135-.061.092-.043-.13.052.09-.113.511-.195.638-.238a10.606 10.606 0 011.315-.347c.1-.02.2-.036.298-.054-.002-.001-.007 0-.008-.002 0 0 .007 0 .01.002.024-.004.048-.01.072-.013.287-.05.033.019-.056.017.065.008.25-.01.421-.03a5.21 5.21 0 011.663.884c3.563 2.9 3.515 7.99 2.787 12.1m-11.212 19.763a73.72 73.72 0 01-.425 4.813 4.551 4.551 0 00-.237 1.915c-.243 1.663-.58 3.31-.957 4.947a47.054 47.054 0 01-5.693 11.789l-.024-.027c-2.855 3.262-6.217 6.097-9.692 8.699-6.519 4.885-13.279 9.474-20.045 14.006a660.568 660.568 0 01-12.112 7.92.98.98 0 00-.408.5c-1.325.828-2.693 1.579-4.149 2.168-5.437 2.197-11.212 1.196-16.55-.778-5.016-1.856-9.824-4.38-14.588-6.801-8.522-4.33-17.003-9.164-23.92-15.85-7.166-6.93-11.757-15.658-13.307-25.516-1.608-10.22-.255-20.7 1.146-30.86.668-4.842 1.371-9.704 1.898-14.58 4.8 2.555 9.913 3.123 13.707-2.78 1.774-2.76 2.925-5.86 3.617-9.093 2.744 1.8 5.757 2.758 9.074 1.854 3.22-.877 5.774-3.393 7.232-6.317 1.26-2.527 1.003-5.807 2.31-8.193 3.06 1.719 6.442 2.798 9.908 2.926 7.94.293 12.316-5.733 14.79-12.523 3.907 2.043 8.843 2.068 12.688-.2.25.629.538 1.242.861 1.84 1.491 4.483 5.443 8.04 10.013 9.386 2.99.88 6.142.729 8.986-.557.065-.03.132-.066.197-.097-.043 5.918 1.22 11.675 5.623 16.26 3.933 4.096 9.601 5.728 14.801 4.666l.047.244c.004.126.012.25.016.377.03.883.24 1.72.564 2.505.36 1.766.72 3.532 1.074 5.295 2.122 10.532 4.112 21.27 3.555 32.062m-58.766 66.836c-1.556 2.528-3.878 5.22-7.122 4.957-3.122-.254-4.816-3.378-6.05-5.964a.95.95 0 00.128-.48v-7.84c3.342 1.313 6.802 2.298 10.398 2.48.85.043 1.676.008 2.492-.062v6.416c0 .18.065.344.154.493m-66-67.791a.395.395 0 00-.132.089c-.086.093-.158.222-.147.353.003.038 0 .075-.003.113a.995.995 0 01-.029.107.917.917 0 01-.05.086l-.114.116a.51.51 0 00-.138.31l-.012-.002a.94.94 0 00-.91.018c-1.874 1.012-3.695-.704-4.836-2.065-1.344-1.603-2.27-3.577-3.219-5.425-1.98-3.86-3.703-8.162-3.096-12.583.475-3.46 2.471-7.194 6.102-8.083 2.962-.725 6.71.515 7.661 3.644a.922.922 0 00.762.67c-1.064 7.533-1.97 15.074-1.839 22.652M99.187 3.83a24.913 24.913 0 00-4.566-1.323c1.598.136 3.145.598 4.565 1.323m82.837 96.855c-.152-1.146-.474-2.216-.779-3.327-.394-1.438-.103-2.614.217-4.03 1.047-4.628-.444-9.534-3.867-12.812 3.086-7.248 1.283-16.171-4.568-21.53.052-1.364-.359-2.57-1.01-3.674a5.73 5.73 0 00-1.974-2.53 35.424 35.424 0 00-.88-.896c-.152-.15-.313-.297-.477-.448-.346-2.881-.709-5.818-1.382-8.6a23.755 23.755 0 00-.135-1.3c-.44-3.26-1.495-7.136-3.892-9.54-1.635-1.641-4.283-2.351-6.294-1.255-1.059-2.558-2.552-4.985-4.433-7.032-.976-1.535-2.233-2.88-3.873-3.892-2.349-1.45-5.077-1.596-7.519-.836-.484-3.513-2.808-6.705-6.259-7.962-3.985-1.452-8.648.266-11.083 3.63-2.259-2.875-4.826-5.711-8.376-6.871-2.74-.894-6.004-.628-8.307 1.126-.102-.098-.203-.202-.306-.296-.075-.07-.157-.127-.233-.194-2.467-4.545-7.215-7.731-12.47-7.95C88.487.229 83.22 3.529 80.55 8.374c-3.76-3.515-9.81-4.216-14.34-1.751-.593.323-1.149.709-1.672 1.136-.583.475-1.102 1.22-1.772 1.566-.938.483-1.83-.3-2.673-.683a10.74 10.74 0 00-2.454-.792c-3.222-.603-6.622.16-9.173 2.247-2.174 1.778-3.54 4.399-3.908 7.159a18.788 18.788 0 00-2.175 3.418c-4.202-4.243-12.312-3.768-15.45 1.63-.909 1.564-1.334 3.357-2.235 4.923-.397.69-.894 1.346-1.617 1.722-1.198.624-2.635.383-3.93.346-3.972-.116-7.004 2.28-8.276 6.003-1.25 3.664-.19 7.387 1.493 10.75a15.89 15.89 0 001.168 2.352c-5.719 2.089-8.209 10.013-5.28 15.21.042.473.107.942.197 1.405-4.895 1.737-8.644 6.51-8.445 11.87C.21 82.31 4.315 86.96 9.443 88.29c-4.89 5.755-2.98 14.634.672 20.69 1.198 1.987 2.711 3.676 4.204 5.439 1.807 2.133 2.711 4.359 3.411 7.038 1.162 4.446 3.234 8.324 6.836 11.276 3.827 3.137 8.671 4.915 13.64 4.694.04-.002.066-.021.104-.026 1.663 6.25 4.508 12.105 8.716 17.238 6.205 7.568 14.553 13.092 23.063 17.748 4.392 2.402 8.888 4.618 13.405 6.775 1.338.639 2.697 1.269 4.074 1.86a1 1 0 00-.095.437v7.819c-.268.288-.397.709-.187 1.156 1.622 3.447 3.855 7.358 8.11 7.657 4.174.293 7.214-3.145 9.13-6.414.264-.453.127-.88-.163-1.162v-6.568c3.465-.671 6.652-2.246 9.68-4.26-.05-.035-.089-.083-.137-.121a661.025 661.025 0 0020.875-13.926c6.285-4.371 12.824-8.671 18.317-14.043.388-.38.743-.793 1.117-1.187.241-.044.473-.173.65-.42.23-.322.447-.652.67-.98.023-.028.05-.052.073-.08l-.015-.007a48.79 48.79 0 005.45-10.787c.054.022.111.033.163.056.154-.593.285-1.19.42-1.787.053-.166.112-.33.163-.496a.982.982 0 00.031-.33c.007-.031.016-.063.022-.094.098.042.195.084.316.096 4.148.398 7.98-1.532 10.933-4.324 3.095-2.926 6.016-7.15 6.587-11.448.134-1.01.115-2.038-.125-3.033-.282-1.172-1.218-2.265-.907-3.506.255-1.018 1.082-1.918 1.58-2.828a16.07 16.07 0 001.331-3.27 16.11 16.11 0 00.466-6.486" fill="#231F20" mask="url(#b)"/></g><path d="M278.72 222.006c-.03.37.006.89-.3 1.142-.29.237-.814.199-1.167.225-1.055.079-2.11.154-3.165.23l-5.65.412h-3.334c-.548-3.017-.915-6.152-.131-9.144.729-2.777 2.745-5.396 5.575-6.256 2.94-.891 5.602.774 7.023 3.323 1.697 3.045 1.423 6.72 1.15 10.068m.852-9.632c-1.252-3.083-4.025-5.77-7.547-5.644-3.365.119-6.371 2.57-7.813 5.514-2.05 4.184-1.296 9.065-.443 13.45.173.889 1.365.682 1.557-.051h1.694a.746.746 0 00.387.074l1.03-.074h1.406a.794.794 0 00.408-.133l4.188-.305c1.13-.082 2.269-.132 3.396-.25.75-.076 1.48-.257 1.962-.881.52-.676.513-1.583.576-2.396.086-1.1.16-2.2.169-3.303.013-2.027-.201-4.108-.97-6.001" fill="#231F20"/><g fill="#231F20"><path d="M260.333 171.6c-.729 4.647-2.734 9.657-6.243 12.91-4.183 3.875-10.038 2.543-13.553-1.527-3.221-3.729-4.584-9.002-4.592-13.843-.009-5.273 1.654-10.533 4.768-14.796.348.01.688.048 1.016.115.025-.045.053-.086.072-.138 1.253-3.469 6.331-3.87 9.348-3.06 2.883.775 5.054 2.672 6.427 5.173-.218.275-.284.654-.026 1.045.559.847 1.017 1.74 1.418 2.653.122.491.232.988.331 1.486.073-.026.146-.05.219-.077 1.102 3.201 1.347 6.67.815 10.058m.504-12.238c-.742-2.827-2.044-5.572-4.304-7.485a12.673 12.673 0 00-8.305-2.98c-2.717.038-5.691 1-7.382 3.145-.334-.193-.75-.183-1.069.223-6.794 8.643-8.256 22.267-1.313 31.32 3.358 4.378 9.388 6.932 14.571 4.14 4.724-2.545 7.498-8.31 8.756-13.3 1.257-4.987 1.096-10.366-.954-15.063m23.152 2.181l.219.076c.099-.498.209-.994.33-1.485.402-.914.86-1.807 1.419-2.654.258-.391.193-.77-.026-1.045 1.374-2.501 3.544-4.4 6.427-5.173 3.017-.811 8.095-.408 9.348 3.06.019.053.047.094.072.139a5.94 5.94 0 011.016-.115c3.114 4.262 4.778 9.522 4.768 14.796-.008 4.84-1.371 10.114-4.592 13.842-3.515 4.07-9.37 5.403-13.553 1.527-3.51-3.252-5.513-8.262-6.243-12.91-.532-3.39-.287-6.858.815-10.058m-2.272 12.883c1.257 4.989 4.032 10.755 8.755 13.3 5.184 2.792 11.213.238 14.57-4.141 6.944-9.053 5.482-22.677-1.312-31.32-.32-.406-.735-.415-1.07-.222-1.69-2.146-4.664-3.107-7.381-3.146a12.673 12.673 0 00-8.305 2.98c-2.26 1.914-3.562 4.658-4.304 7.485-2.05 4.698-2.211 10.077-.953 15.064m-37.813-31.698a26.12 26.12 0 00-13.534 8.433c-.679.805.48 1.976 1.165 1.165a24.627 24.627 0 0112.806-8.01c1.028-.258.593-1.847-.437-1.588m63.05 3.665c-4.072-3.508-9.534-4.212-14.704-4.562-1.058-.072-1.054 1.575 0 1.646 4.688.318 9.835.89 13.54 4.08.8.69 1.97-.472 1.164-1.164"/><path d="M254.399 163.236c-.884-1.666-2.487-3.199-4.408-3.496a3.731 3.731 0 00-1.472.078 1.018 1.018 0 00-.46 0c-6.5 1.454-7.85 10.951-2.94 14.897 1.37 1.101 3.14 1.666 4.878 1.183 1.723-.478 3.13-1.833 4.048-3.328 1.696-2.765 1.88-6.458.354-9.334m46.673 0c-.884-1.666-2.487-3.199-4.408-3.496a3.731 3.731 0 00-1.472.078 1.018 1.018 0 00-.46 0c-6.5 1.454-7.85 10.951-2.94 14.897 1.371 1.101 3.14 1.666 4.878 1.183 1.723-.478 3.13-1.833 4.048-3.328 1.696-2.765 1.881-6.458.354-9.334"/></g><path d="M278.922 192.11c-.085-.533-.75-.83-1.23-.698-.569.156-.784.695-.699 1.23.4 2.506-1.635 5.202-4.135 5.558-2.625.374-5.323-1.877-5.507-4.499-.089-1.278-2.09-1.287-2 0 .207 2.96 2.395 5.537 5.26 6.306 2.89.777 5.817-.647 7.363-3.132a6.89 6.89 0 00.948-4.765" fill="#231F20"/></g></svg>
